X:10
T:No.130 The Knights of St.Patrick
M:6/8
L:1/8
C:jig
K:D
def gfe|dcd AFD|GBG FAF|A,CE GFE|
dcd faf|dcd AFD|GBc dAF|A,CE D3:|
a^ga f=f^f|Adf a=gf|gfg ece|Ace gfe|
f=f^f gfg|a^ga ba=g|fed cBA|dAF D3:|
